src/assets/icons/cars/doors5_car.svg

<svg width="48" height="48" viewBox="0 0 48 48" fill="none" xmlns="http://www.w3.org/2000/svg">
<g id="Icons / Vertical Cars / Car doors 5">
<path id="Combined Shape" fill-rule="evenodd" clip-rule="evenodd" d="M28.2675 19H18.2675C17.7155 19 17.2675 19.448 17.2675 20C17.2675 20.552 17.7155 21 18.2675 21H28.2675C28.8195 21 29.2675 20.552 29.2675 20C29.2675 19.448 28.8195 19 28.2675 19ZM31.2675 36.0208C31.2675 36.3958 31.1225 36.7428 30.9405 37.0418L29.1795 33.5528C29.0095 33.2138 28.6465 32.9998 28.2675 32.9998H18.2675C17.8885 32.9998 17.5425 33.2138 17.3725 33.5528L15.5945 37.0418C15.4125 36.7428 15.2675 36.3958 15.2675 36.0208V11.9788C15.2675 10.9038 16.1985 10.0308 17.2675 10.0048V10.9998C17.2675 11.5518 17.7155 11.9998 18.2675 11.9998C18.8195 11.9998 19.2675 11.5518 19.2675 10.9998V9.99982H27.2675V10.9998C27.2675 11.5518 27.7155 11.9998 28.2675 11.9998C28.8195 11.9998 29.2675 11.5518 29.2675 10.9998V10.0048C30.3365 10.0308 31.2675 10.9038 31.2675 11.9788V36.0208ZM17.3855 37.9998L18.8855 34.9998H27.6495L29.1495 37.9998H17.3855ZM33.2675 27.5258V20.4118L35.8225 23.1068C36.0185 23.3108 36.2635 23.4138 36.5255 23.4138C36.7755 23.4138 37.0165 23.3208 37.2105 23.1348C37.6085 22.7518 37.6515 22.1188 37.2685 21.7208L33.2675 17.5258V11.9788C33.2675 9.78182 31.4175 7.99982 29.2195 7.99982H17.3155C15.1185 7.99982 13.2675 9.78182 13.2675 11.9788V17.5258L9.27049 21.7208C8.88849 22.1188 8.91749 22.7518 9.31649 23.1348C9.51049 23.3208 9.77649 23.4138 10.0265 23.4138C10.2885 23.4138 10.5165 23.3108 10.7125 23.1068L13.2675 20.4118V27.5258L9.27049 31.7208C8.88849 32.1188 8.91749 32.7518 9.31649 33.1348C9.51049 33.3208 9.76849 33.4138 10.0175 33.4138C10.2805 33.4138 10.5125 33.3108 10.7085 33.1068L13.2675 30.4118V36.0208C13.2675 38.2188 15.1185 39.9998 17.3155 39.9998H29.2195C31.4175 39.9998 33.2675 38.2188 33.2675 36.0208V30.4118L35.8225 33.1068C36.0185 33.3108 36.2635 33.4138 36.5255 33.4138C36.7755 33.4138 37.0165 33.3208 37.2105 33.1348C37.6085 32.7518 37.6515 32.1188 37.2685 31.7208L33.2675 27.5258Z" fill="#253238"/>
</g>
</svg>

<svg width="48" height="48" viewBox="0 0 48 48" fill="none" xmlns="http://www.w3.org/2000/svg"><path fill-rule="evenodd" clip-rule="evenodd" d="M28.267 19h-10a1 1 0 000 2h10a1 1 0 000-2zm3 17.02c0 .376-.145.723-.326 1.022l-1.761-3.49a1.027 1.027 0 00-.913-.552h-10c-.378 0-.724.214-.895.553l-1.777 3.489c-.183-.3-.328-.646-.328-1.021V11.979c0-1.075.931-1.948 2-1.974V11a1 1 0 002 0v-1h8v1a1 1 0 002 0v-.995c1.07.026 2 .899 2 1.974V36.02zM17.386 38l1.5-3h8.764l1.5 3H17.386zm15.881-10.474v-7.114l2.555 2.695a.959.959 0 00.703.307c.25 0 .492-.093.686-.28.398-.382.44-1.015.058-1.413l-4.002-4.195v-5.547c0-2.197-1.85-3.98-4.048-3.98H17.316c-2.197 0-4.048 1.783-4.048 3.98v5.547L9.27 21.72a1 1 0 00.046 1.414c.194.186.46.279.71.279.263 0 .49-.103.687-.307l2.555-2.695v7.114L9.27 31.72a1 1 0 00.046 1.414c.194.186.452.279.701.279a.932.932 0 00.692-.307l2.559-2.695v5.609c0 2.198 1.85 3.979 4.047 3.979H29.22c2.198 0 4.048-1.781 4.048-3.98v-5.608l2.555 2.695a.959.959 0 00.703.307c.25 0 .492-.093.686-.28.398-.382.44-1.015.058-1.413l-4.002-4.195z" fill="#253238"/></svg>
